src/lib/packages/icons/src/assets/line/carrot.svg

<svg width="24" height="24" viewBox="0 0 24 24" fill="none" xmlns="http://www.w3.org/2000/svg">
<path d="M21.53 8.18994C20.65 7.30994 18.86 6.55994 17.28 6.71994C17.44 5.13994 16.69 3.34994 15.81 2.46994C15.52 2.17994 15.04 2.17994 14.75 2.46994C13.86 3.35994 13.09 5.19993 13.29 6.79993C11.68 6.46993 9.93002 6.91995 8.67002 8.16995C8.59002 8.24995 8.53002 8.31993 8.45002 8.39993C8.45002 8.39993 8.43002 8.40995 8.42002 8.41995C8.41002 8.42995 8.41 8.43995 8.4 8.44995C6.27 10.61 4.75 12.7299 3.71 15.0899C3.71 15.0999 3.71002 15.1099 3.70002 15.1199C3.07002 16.5399 2.61002 18.0399 2.29002 19.6799C2.18002 20.2499 2.36 20.8299 2.77 21.2399C3.1 21.5699 3.54 21.7499 3.99 21.7499C4.1 21.7499 4.21002 21.7399 4.32002 21.7199C7.32002 21.1399 9.84 20.0799 12.24 18.3999C12.27 18.3799 12.31 18.3599 12.34 18.3399C12.34 18.3399 12.34 18.3399 12.34 18.3299C13.52 17.4899 14.67 16.5199 15.83 15.3399C17.08 14.0799 17.53 12.3299 17.2 10.7199C17.37 10.7399 17.54 10.7599 17.72 10.7599C19.18 10.7599 20.73 10.06 21.53 9.25995C21.82 8.96995 21.82 8.48995 21.53 8.19995V8.18994ZM15.28 4.29993C15.64 4.98993 15.91 5.91995 15.78 6.69995C15.71 7.10995 15.55 7.41993 15.28 7.64993C15.01 7.41993 14.85 7.09995 14.78 6.69995C14.65 5.91995 14.92 4.98993 15.28 4.29993ZM14.76 14.2799C13.79 15.2599 12.83 16.0899 11.87 16.8199L9.53001 14.48C9.24001 14.19 8.76001 14.19 8.47001 14.48C8.18001 14.77 8.18001 15.2499 8.47001 15.5399L10.62 17.6899C8.62 18.9599 6.52001 19.7699 4.03001 20.2499C3.93001 20.2699 3.86002 20.2199 3.82002 20.1899C3.79002 20.1599 3.74002 20.09 3.76002 19.98C3.99002 18.82 4.29001 17.75 4.66001 16.73L5.47001 17.5399C5.62001 17.6899 5.81001 17.7599 6.00001 17.7599C6.19001 17.7599 6.38001 17.6899 6.53001 17.5399C6.82001 17.2499 6.82001 16.77 6.53001 16.48L5.29002 15.2399C6.16002 13.4199 7.35 11.7499 8.96 10.0299L10.46 11.5299C10.61 11.6799 10.8 11.7499 10.99 11.7499C11.18 11.7499 11.37 11.6799 11.52 11.5299C11.81 11.2399 11.81 10.7599 11.52 10.4699L10.03 8.97995C10.68 8.46995 11.46 8.18994 12.25 8.18994C13.16 8.18994 14.07 8.53995 14.76 9.22995C16.14 10.61 16.14 12.8799 14.76 14.2799ZM17.29 9.21994C16.88 9.14994 16.57 8.98994 16.34 8.71994C16.57 8.44994 16.89 8.28994 17.29 8.21994C18.07 8.08994 19 8.35994 19.7 8.71994C19.01 9.07994 18.07 9.34994 17.3 9.21994H17.29Z" fill="currentColor"/>
</svg>

<svg xmlns="http://www.w3.org/2000/svg" width="24" height="24" fill="none"><path fill="currentColor" d="M21.53 8.19c-.88-.88-2.67-1.63-4.25-1.47.16-1.58-.59-3.37-1.47-4.25a.754.754 0 0 0-1.06 0c-.89.89-1.66 2.73-1.46 4.33-1.61-.33-3.36.12-4.62 1.37-.08.08-.14.15-.22.23 0 0-.02.01-.03.02-.01.01-.01.02-.02.03-2.13 2.16-3.65 4.28-4.69 6.64 0 .01 0 .02-.01.03-.63 1.42-1.09 2.92-1.41 4.56-.11.57.07 1.15.48 1.56a1.727 1.727 0 0 0 1.55.48c3-.58 5.52-1.64 7.92-3.32.03-.02.07-.04.1-.06v-.01a25.98 25.98 0 0 0 3.49-2.99 5.096 5.096 0 0 0 1.37-4.62c.17.02.34.04.52.04 1.46 0 3.01-.7 3.81-1.5.29-.29.29-.77 0-1.06v-.01ZM15.28 4.3c.36.69.63 1.62.5 2.4-.07.41-.23.72-.5.95-.27-.23-.43-.55-.5-.95-.13-.78.14-1.71.5-2.4Zm-.52 9.98c-.97.98-1.93 1.81-2.89 2.54l-2.34-2.34a.754.754 0 0 0-1.06 0c-.29.29-.29.77 0 1.06l2.15 2.15c-2 1.27-4.1 2.08-6.59 2.56-.1.02-.17-.03-.21-.06a.23.23 0 0 1-.06-.21c.23-1.16.53-2.23.9-3.25l.81.81c.15.15.34.22.53.22s.38-.07.53-.22c.29-.29.29-.77 0-1.06l-1.24-1.24c.87-1.82 2.06-3.49 3.67-5.21l1.5 1.5c.15.15.34.22.53.22s.38-.07.53-.22c.29-.29.29-.77 0-1.06l-1.49-1.49c.65-.51 1.43-.79 2.22-.79.91 0 1.82.35 2.51 1.04 1.38 1.38 1.38 3.65 0 5.05Zm2.53-5.06c-.41-.07-.72-.23-.95-.5.23-.27.55-.43.95-.5.78-.13 1.71.14 2.41.5-.69.36-1.63.63-2.4.5h-.01Z"/></svg>
